images/freezing-icon.svg

<svg width="66" height="74" viewBox="0 0 66 74" fill="none" xmlns="http://www.w3.org/2000/svg">
<path d="M64.5461 44.3384C64.315 44.3384 64.0912 44.3896 63.8824 44.4955L56.1939 48.3532L52.4504 46.2344L64.0614 40.4077C64.4082 40.236 64.6617 39.9401 64.781 39.5784C64.9004 39.2168 64.8668 38.8296 64.6916 38.4898C64.4417 38.0113 63.9458 37.7154 63.3977 37.7154C63.1703 37.7154 62.9391 37.7702 62.734 37.8724L49.4525 44.5394L44.4449 41.7046L50.5898 38.2304C51.0372 37.9784 51.3169 37.5035 51.3169 36.9957C51.3169 36.4879 51.0372 36.0167 50.5898 35.7609L44.2361 32.1663L49.4563 29.2146L62.7377 35.8815C62.9465 35.9874 63.1665 36.0386 63.4014 36.0386C63.9496 36.0386 64.4455 35.7427 64.6953 35.2641C64.8705 34.9244 64.9041 34.5408 64.7848 34.1755C64.6655 33.8138 64.4082 33.5179 64.0651 33.3462L52.4541 27.5195L56.1977 25.4007L63.8862 29.2584C64.095 29.3644 64.315 29.4155 64.5461 29.4155C65.0943 29.4155 65.5902 29.1196 65.84 28.641C66.0152 28.3013 66.0488 27.9177 65.9295 27.5524C65.8102 27.1908 65.5529 26.8949 65.2098 26.7232L59.1955 23.7057L64.7251 20.5786C65.0607 20.3887 65.3031 20.0818 65.4037 19.7129C65.5044 19.3439 65.4522 18.9603 65.2583 18.6315C65.001 18.1932 64.5163 17.9192 63.998 17.9192C63.7445 17.9192 63.4947 17.9849 63.2709 18.1091L57.7413 21.2362L58.0806 14.6241C58.0993 14.2442 57.9688 13.8788 57.7078 13.5976C57.4468 13.3163 57.0888 13.1482 56.701 13.13C55.8957 13.0825 55.217 13.6962 55.176 14.4816L54.7435 22.9349L50.9999 25.0537L51.6562 12.2897C51.6748 11.9098 51.5443 11.5445 51.2833 11.2632C51.0223 10.9819 50.6643 10.8139 50.2803 10.7956C49.4861 10.7481 48.7926 11.3582 48.7553 12.1473L48.0058 26.7487L42.7857 29.7004V22.5111C42.7857 22.0034 42.506 21.5321 42.0586 21.2764C41.6186 21.028 41.0444 21.028 40.6044 21.2764L34.4596 24.7505V19.0882L46.9916 11.15C47.3197 10.9418 47.5435 10.6239 47.6255 10.2513C47.7075 9.8787 47.6367 9.49877 47.4241 9.1773C47.1557 8.76815 46.6971 8.52705 46.2011 8.52705C45.9215 8.52705 45.6493 8.60742 45.4144 8.75719L34.4559 15.6944V11.4605L41.7118 6.86489C42.04 6.65666 42.2637 6.33884 42.3457 5.96622C42.4277 5.59361 42.3569 5.21368 42.1444 4.89221C41.8759 4.48306 41.4173 4.24196 40.9214 4.24196C40.6417 4.24196 40.3695 4.32232 40.1346 4.4721L34.4596 8.06676V1.80899C34.4596 1.02357 33.8071 0.384277 33.0054 0.384277C32.2038 0.384277 31.5512 1.02357 31.5512 1.80899V8.06676L25.8762 4.4721C25.6413 4.32232 25.3691 4.24196 25.0895 4.24196C24.5936 4.24196 24.1349 4.48671 23.8665 4.89221C23.6539 5.21003 23.5831 5.59361 23.6651 5.96622C23.7472 6.33884 23.9709 6.65666 24.299 6.86489L31.5512 11.4605V15.6944L20.5927 8.75719C20.3578 8.60742 20.0856 8.52705 19.806 8.52705C19.31 8.52705 18.8514 8.77181 18.583 9.1773C18.3704 9.49512 18.2996 9.8787 18.3816 10.2513C18.4636 10.6239 18.6874 10.9418 19.0155 11.15L31.5475 19.0882V24.9952L25.4027 21.5211C24.9627 21.2727 24.3885 21.2727 23.9485 21.5211C23.5011 21.7732 23.2214 22.2481 23.2214 22.7559V29.7078L18.0013 26.756L17.2518 12.1473C17.2108 11.3619 16.5247 10.7518 15.7268 10.7956C15.339 10.8139 14.9811 10.9819 14.7201 11.2632C14.4591 11.5445 14.3286 11.9098 14.3472 12.2897L15.0034 25.0537L11.2599 22.9349L10.8274 14.4816C10.7901 13.7218 10.1562 13.1263 9.38436 13.1263C9.35826 13.1263 9.32843 13.1263 9.30233 13.13C8.91455 13.1482 8.5566 13.3163 8.29559 13.5976C8.03458 13.8788 7.90408 14.2442 7.92272 14.6241L8.26203 21.2362L2.7287 18.1091C2.50871 17.9849 2.25516 17.9192 2.00161 17.9192C1.48333 17.9192 0.998605 18.1932 0.741327 18.6315C0.338632 19.311 0.580995 20.1841 1.27453 20.5786L6.80413 23.7057L0.7898 26.7232C0.0776258 27.0812 -0.205752 27.9433 0.159656 28.641C0.409477 29.1196 0.905388 29.4155 1.4535 29.4155C1.68468 29.4155 1.9084 29.3644 2.11347 29.2584L9.80197 25.4007L13.5455 27.5195L1.93823 33.3462C1.59146 33.5179 1.33791 33.8138 1.2186 34.1755C1.09928 34.5372 1.13284 34.9244 1.30808 35.2605C1.5579 35.739 2.05382 36.0349 2.60193 36.0349C2.8331 36.0349 3.05682 35.9838 3.2619 35.8778L16.5434 29.2109L21.551 32.0457L15.4099 35.5271C14.9624 35.7792 14.6828 36.2541 14.6828 36.7619C14.6828 37.2697 14.9624 37.7409 15.4099 37.9966L21.7672 41.5913L16.5471 44.543L3.26563 37.8761C3.05682 37.7702 2.83683 37.719 2.60193 37.719C2.05382 37.719 1.5579 38.0149 1.30808 38.4935C1.13284 38.8332 1.09928 39.2168 1.2186 39.5784C1.33791 39.9401 1.59519 40.236 1.93823 40.4077L13.5493 46.2344L9.8057 48.3532L2.1172 44.4955C1.9084 44.3896 1.68841 44.3384 1.4535 44.3384C0.905388 44.3384 0.409477 44.6343 0.159656 45.1129C-0.205752 45.8106 0.0776258 46.6728 0.7898 47.0308L6.80413 50.0482L1.27453 53.1753C0.580995 53.5662 0.342361 54.4393 0.741327 55.1224C0.998605 55.5608 1.48333 55.8348 2.00161 55.8348C2.25516 55.8348 2.50498 55.769 2.7287 55.6448L8.2583 52.5177L7.919 59.1299C7.90035 59.5098 8.03086 59.8751 8.29186 60.1564C8.55287 60.4377 8.91082 60.6057 9.29487 60.624C9.32097 60.624 9.34334 60.6276 9.36944 60.6276C10.145 60.6276 10.7826 60.0322 10.8199 59.276L11.2524 50.8227L14.996 48.7039L14.3397 61.4679C14.3211 61.8478 14.4516 62.2131 14.7126 62.4944C14.9736 62.7757 15.3316 62.9437 15.7156 62.962C15.7417 62.962 15.7641 62.9656 15.7902 62.9656C16.5658 62.9656 17.2034 62.3702 17.2406 61.614L17.9901 47.0125L23.2102 44.0608V51.2501C23.2102 51.7579 23.4899 52.2291 23.9373 52.4849C24.1573 52.6091 24.4109 52.6748 24.6644 52.6748C24.918 52.6748 25.1715 52.6091 25.3915 52.4849L31.5363 49.0108V54.6767L19.0043 62.6149C18.6799 62.8232 18.4525 63.141 18.3704 63.5136C18.2884 63.8862 18.3592 64.2661 18.5718 64.5876C18.8402 64.9967 19.2989 65.2379 19.7948 65.2379C20.0744 65.2379 20.3466 65.1575 20.5815 65.0114L31.5363 58.0741V62.3081L24.2841 66.9037C23.9597 67.1119 23.7322 67.4297 23.6502 67.8023C23.5682 68.175 23.639 68.5549 23.8516 68.8763C24.12 69.2855 24.5786 69.5266 25.0746 69.5266C25.3542 69.5266 25.6264 69.4462 25.8613 69.2965L31.5363 65.7018V71.9596C31.5363 72.745 32.1888 73.3843 32.9905 73.3843C33.7922 73.3843 34.4447 72.745 34.4447 71.9596V65.7018L40.1197 69.2965C40.3546 69.4462 40.6305 69.5266 40.9064 69.5266C41.4024 69.5266 41.861 69.2818 42.1294 68.8763C42.342 68.5585 42.4128 68.175 42.3308 67.8023C42.2488 67.4297 42.025 67.1119 41.6969 66.9037L34.4409 62.3081V58.0741L45.3957 65.0114C45.6307 65.1611 45.9066 65.2415 46.1825 65.2415C46.6784 65.2415 47.137 64.9967 47.4055 64.5913C47.618 64.2734 47.6889 63.8899 47.6068 63.5172C47.5248 63.1446 47.3011 62.8268 46.973 62.6186L34.4559 54.6694V48.766L40.6007 52.2401C41.0407 52.4885 41.6149 52.4885 42.0549 52.2401C42.5023 51.988 42.782 51.5131 42.782 51.0054V44.0535L48.0021 47.0052L48.7515 61.6067C48.7888 62.3665 49.4264 62.9583 50.202 62.9583C50.2281 62.9583 50.2505 62.9583 50.2766 62.9547C50.6643 62.9364 51.0223 62.7684 51.2833 62.4871C51.5443 62.2058 51.6748 61.8405 51.6562 61.4605L50.9999 48.6966L54.7435 50.8154L55.176 59.2687C55.2133 60.0285 55.8509 60.6203 56.6265 60.6203C56.6526 60.6203 56.6749 60.6203 56.701 60.6167C57.0888 60.5984 57.4468 60.4304 57.7078 60.1491C57.9688 59.8678 58.0993 59.5025 58.0806 59.1226L57.7413 52.5104L63.2709 55.6375C63.4909 55.7617 63.7445 55.8275 63.998 55.8275C64.5163 55.8275 65.001 55.5535 65.2583 55.1151C65.4522 54.7863 65.5044 54.4027 65.4037 54.0338C65.3031 53.6648 65.0607 53.358 64.7251 53.168L59.1955 50.0409L65.2098 47.0235C65.5566 46.8481 65.8102 46.5559 65.9295 46.1942C66.0488 45.8326 66.0152 45.4453 65.84 45.1092C65.5939 44.638 65.098 44.3384 64.5461 44.3384ZM26.1298 42.4096L31.5475 39.3446V45.712L26.1298 48.777V42.4096ZM39.8736 31.348L34.4559 34.413V28.0456L39.8736 24.9806V31.348ZM35.91 36.8788L41.3278 33.8138L46.9543 36.9957L41.5366 40.0607L35.91 36.8788ZM31.5475 34.413L26.1298 31.348V25.2181L31.5475 28.283V34.413ZM30.0933 36.8788L24.6756 39.9438L19.0453 36.7619L24.4631 33.6969L30.0933 36.8788ZM34.4559 39.3446L39.8736 42.4096V48.5395L34.4559 45.4746V39.3446Z" fill="url(#paint0_linear)"/>
<defs>
<linearGradient id="paint0_linear" x1="53.5" y1="6.88428" x2="22.5" y2="73.3843" gradientUnits="userSpaceOnUse">
<stop stop-color="#AD844C"/>
<stop offset="0.723958" stop-color="#AD844C" stop-opacity="0.33"/>
<stop offset="1" stop-color="#AD844C"/>
</linearGradient>
</defs>
</svg>

<svg width="66" height="74" fill="none" xmlns="http://www.w3.org/2000/svg"><path d="M64.546 44.338c-.231 0-.455.052-.664.157l-7.688 3.858-3.744-2.119 11.611-5.826a1.412 1.412 0 00.63-1.918 1.45 1.45 0 00-1.293-.775c-.228 0-.459.055-.664.157L49.452 44.54l-5.007-2.834 6.145-3.475c.447-.252.727-.726.727-1.234s-.28-.98-.727-1.235l-6.354-3.595 5.22-2.951 13.282 6.667c.209.105.428.157.663.157a1.45 1.45 0 001.294-.775 1.4 1.4 0 00.09-1.089 1.424 1.424 0 00-.72-.829l-11.61-5.826 3.743-2.12 7.688 3.858c.209.106.429.158.66.158a1.45 1.45 0 001.294-.775 1.4 1.4 0 00.09-1.089 1.424 1.424 0 00-.72-.829l-6.014-3.017 5.53-3.127a1.42 1.42 0 00.678-.866 1.39 1.39 0 00-.146-1.082 1.465 1.465 0 00-1.26-.712c-.253 0-.503.066-.727.19l-5.53 3.127.34-6.612a1.396 1.396 0 00-.373-1.026 1.461 1.461 0 00-1.007-.468 1.437 1.437 0 00-1.525 1.352l-.433 8.453L51 25.054l.656-12.764a1.397 1.397 0 00-.373-1.027 1.46 1.46 0 00-1.003-.467 1.438 1.438 0 00-1.525 1.351l-.75 14.602-5.22 2.951v-7.189a1.43 1.43 0 00-.726-1.235 1.512 1.512 0 00-1.455 0L34.46 24.75v-5.662l12.532-7.938c.328-.208.552-.526.634-.899a1.387 1.387 0 00-.202-1.074 1.454 1.454 0 00-1.223-.65c-.28 0-.552.08-.787.23l-10.958 6.937V11.46l7.256-4.595c.328-.208.552-.526.634-.899a1.388 1.388 0 00-.202-1.074 1.454 1.454 0 00-1.223-.65c-.28 0-.551.08-.786.23L34.46 8.067V1.809c0-.785-.653-1.425-1.455-1.425-.801 0-1.454.64-1.454 1.425v6.258l-5.675-3.595a1.462 1.462 0 00-.787-.23c-.495 0-.954.245-1.223.65a1.384 1.384 0 00-.2 1.074c.081.373.305.69.633.899l7.252 4.595v4.234L20.593 8.757a1.462 1.462 0 00-.787-.23c-.496 0-.955.245-1.223.65a1.384 1.384 0 00-.201 1.074c.082.373.305.69.633.899l12.532 7.938v5.907l-6.144-3.474a1.512 1.512 0 00-1.454 0 1.425 1.425 0 00-.728 1.235v6.952l-5.22-2.952-.75-14.609a1.444 1.444 0 00-1.524-1.351 1.462 1.462 0 00-1.007.467 1.397 1.397 0 00-.373 1.027l.656 12.764-3.743-2.12-.433-8.452a1.434 1.434 0 00-1.443-1.356c-.026 0-.056 0-.082.004a1.461 1.461 0 00-1.006.468 1.396 1.396 0 00-.373 1.026l.339 6.612-5.533-3.127a1.487 1.487 0 00-.727-.19c-.519 0-1.003.274-1.26.712a1.412 1.412 0 00.533 1.948l5.53 3.127L.79 26.723a1.414 1.414 0 00-.63 1.918c.25.479.745.775 1.294.775.23 0 .454-.052.66-.158l7.688-3.857 3.744 2.119-11.608 5.826a1.412 1.412 0 00-.63 1.915c.25.478.746.774 1.294.774.231 0 .455-.051.66-.157l13.281-6.667 5.008 2.835-6.141 3.481a1.425 1.425 0 00-.727 1.235c0 .508.28.979.727 1.235l6.357 3.594-5.22 2.952-13.281-6.667a1.442 1.442 0 00-.664-.157 1.45 1.45 0 00-1.294.774c-.175.34-.209.724-.09 1.085.12.362.377.658.72.83l11.611 5.826-3.743 2.12-7.689-3.858a1.442 1.442 0 00-.663-.158 1.45 1.45 0 00-1.294.775 1.414 1.414 0 00.63 1.918l6.014 3.017-5.53 3.127a1.413 1.413 0 00-.533 1.947c.258.439.742.713 1.26.713.254 0 .504-.066.728-.19l5.53-3.127-.34 6.612c-.019.38.112.745.373 1.026.26.282.619.45 1.003.468.026 0 .048.004.074.004.776 0 1.414-.596 1.45-1.352l.433-8.453 3.744-2.12-.656 12.765c-.019.38.112.745.373 1.026.26.282.619.45 1.003.468.026 0 .048.004.074.004.776 0 1.413-.596 1.45-1.352l.75-14.601 5.22-2.952v7.19c0 .507.28.978.727 1.234a1.488 1.488 0 001.454 0l6.145-3.474v5.666l-12.532 7.938a1.432 1.432 0 00-.634.899c-.082.372-.01.752.202 1.074a1.478 1.478 0 002.009.423l10.955-6.937v4.234l-7.252 4.596a1.431 1.431 0 00-.634.898c-.082.373-.011.753.202 1.074.268.41.727.65 1.223.65.28 0 .551-.08.786-.23l5.675-3.594v6.258c0 .785.653 1.424 1.454 1.424.802 0 1.455-.639 1.455-1.424v-6.258l5.675 3.594a1.472 1.472 0 002.01-.42c.212-.318.283-.701.2-1.074a1.418 1.418 0 00-.633-.898l-7.256-4.596v-4.234l10.955 6.937a1.473 1.473 0 002.01-.42c.212-.318.283-.701.2-1.074a1.418 1.418 0 00-.633-.898l-12.517-7.95v-5.903L40.6 52.24c.44.248 1.014.248 1.454 0 .447-.252.727-.727.727-1.235v-6.952l5.22 2.952.75 14.602c.037.76.674 1.351 1.45 1.351.026 0 .049 0 .075-.003a1.462 1.462 0 001.006-.468c.261-.281.392-.647.373-1.026L51 48.697l3.743 2.118.433 8.454c.037.76.675 1.351 1.45 1.351.027 0 .049 0 .075-.003a1.462 1.462 0 001.007-.468c.26-.281.391-.647.373-1.026l-.34-6.613 5.53 3.128c.22.124.474.19.727.19.518 0 1.003-.275 1.26-.713a1.39 1.39 0 00.146-1.081 1.421 1.421 0 00-.679-.866l-5.53-3.127 6.015-3.017c.347-.176.6-.468.72-.83a1.394 1.394 0 00-.09-1.085 1.452 1.452 0 00-1.294-.77zM26.13 42.41l5.418-3.065v6.367l-5.418 3.065V42.41zm13.744-11.062l-5.418 3.065v-6.367l5.418-3.065v6.367zm-3.964 5.53l5.418-3.064 5.626 3.182-5.417 3.065-5.627-3.182zm-4.362-2.465l-5.418-3.065v-6.13l5.418 3.065v6.13zm-1.455 2.466l-5.417 3.065-5.63-3.182 5.417-3.065 5.63 3.182zm4.363 2.466l5.418 3.065v6.13l-5.418-3.065v-6.13z" fill="url(#paint0_linear)"/><defs><linearGradient id="paint0_linear" x1="53.5" y1="6.884" x2="22.5" y2="73.384" gradientUnits="userSpaceOnUse"><stop stop-color="#AD844C"/><stop offset=".724" stop-color="#AD844C" stop-opacity=".33"/><stop offset="1" stop-color="#AD844C"/></linearGradient></defs></svg>
